X: 122
T:Paddy Fahy's
M:4/4
L:1/8
Q:120
C:Paddy Fahy
R:Hornpipe
Z:Andrew Pickering, 21/4/2000
K:G
GBDG BAGF|(3EAc EG cedc|(3Bcd gd ^cd Bd|cBAG (3FED (3cBA|
GBDG B3G|(3EAc EG cedc|(3Bcd gd ^cd FG|1AGGF G2 BA:|2AGGF G2 Bc:|
|:dggf gdBd|caag f2ab|gd (3Bcd ecAG|(3FGA d^c d3=c|
(3Bcd Bd cBcA|Bdfa gedc|(3Bcd gd ^cd FG|AGGF G2 AB:|
<end>
<start>
